svg/logo/edge_line.svg

<?xml version="1.0" encoding="UTF-8"?>
<svg width="24px" height="24px" viewBox="0 0 24 24" version="1.1" xmlns="http://www.w3.org/2000/svg" xmlns:xlink="http://www.w3.org/1999/xlink">
    <title>edge_line</title>
    <g id="Icon" stroke="none" stroke-width="1" fill="none" fill-rule="evenodd">
        <g id="Logo" transform="translate(-672.000000, -192.000000)">
            <g id="edge_line" transform="translate(672.000000, 192.000000)">
                <path d="M24,0 L24,24 L0,24 L0,0 L24,0 Z M12.5935,23.2578 L12.5819,23.2595 L12.5109,23.295 L12.4919,23.2987 L12.4767,23.295 L12.4057,23.2595 C12.3958,23.2564 12.387,23.259 12.3821,23.2649 L12.378,23.2758 L12.3609,23.7031 L12.3659,23.7235 L12.3769,23.7357 L12.4805,23.8097 L12.4953,23.8136 L12.5071,23.8097 L12.6107,23.7357 L12.6233,23.7197 L12.6267,23.7031 L12.6096,23.2758 C12.6076,23.2657 12.601,23.2593 12.5935,23.2578 Z M12.8584,23.1453 L12.8445,23.1473 L12.6598,23.2397 L12.6499,23.2499 L12.6472,23.2611 L12.6651,23.6906 L12.6699,23.7034 L12.6784,23.7105 L12.8793,23.8032 C12.8914,23.8069 12.9022,23.803 12.9078,23.7952 L12.9118,23.7812 L12.8777,23.1665 C12.8753,23.1546 12.8674,23.147 12.8584,23.1453 Z M12.143,23.1473 C12.1332,23.1424 12.1222,23.1453 12.1156,23.1526 L12.1099,23.1665 L12.0758,23.7812 C12.0751,23.7927 12.0828,23.8019 12.0926,23.8046 L12.1083,23.8032 L12.3092,23.7105 L12.3186,23.7024 L12.3225,23.6906 L12.3404,23.2611 L12.3372,23.2485 L12.3278,23.2397 L12.143,23.1473 Z" id="MingCute" fill-rule="nonzero"></path>
                <path d="M12,2 C16.7603,2 20.7416,5.32525 21.7522,9.77871 C22.112,11.3644 21.639,12.6043 20.925,13.4674 C20.2444,14.2901 19.3652,14.7542 18.8342,14.9425 C17.8702,15.2843 16.7855,15.2695 15.9229,15.1187 C15.4837,15.0419 15.0649,14.9237 14.7105,14.7728 C14.402,14.6414 13.98,14.419 13.7196,14.047 C13.4423,13.6508 13.4883,13.113 13.8288,12.7696 C14.3142,12.28 14.5377,11.7754 14.5708,11.3233 C14.6031,10.8834 14.4637,10.3869 14.0223,9.87311 C13.3186,9.05967 12.1348,8.90319 11.2992,9.49888 C10.4949,10.0765 10.1105,10.9556 10.1945,11.9535 C10.28,12.969 10.8645,14.1687 12.1402,15.2318 C13.3173,16.2127 15.3527,17 17,17 C17.5762,17 18.1349,16.9306 18.6686,16.8001 C19.0884,16.6975 19.5265,16.8762 19.7549,17.243 C19.9833,17.6098 19.9503,18.0818 19.673,18.4132 C17.8402,20.6039 15.0827,22 12,22 C11.2304,22 10.48,21.9129 9.75845,21.7476 C5.31519,20.7296 2,16.7531 2,12 C2,11.006 2.14533,10.0442 2.41656,9.13557 C3.64818,5.00957 7.47132,2 12,2 Z M8.31607,12.8623 C8.12027,13.497 8,14.2142 8,15 C8,16.827 8.93796,18.5482 10.4354,19.8473 C10.9406,19.9474 11.4637,20 12,20 C13.4545,20 14.818,19.6123 15.9934,18.9338 C14.1216,18.6957 12.1457,17.8398 10.8598,16.7682 C9.49451,15.6305 8.62994,14.2581 8.31607,12.8623 Z M9.95071,7.91854 C9.56037,7.88798 9.17094,7.89693 8.78299,7.94191 C7.30839,8.11288 5.77641,8.81486 4.25126,10.0021 C4.08738,10.6397 4,11.309 4,12 C4,14.324 4.99134,16.4174 6.57445,17.8793 C6.20783,16.9827 6,16.0156 6,15 C6,11.702 7.71662,9.02371 9.55277,8.10559 C9.68453,8.03971 9.81721,7.97725 9.95071,7.91854 Z M12,4 C9.66206,4 7.55735,5.00321 6.09419,6.60324 C6.89695,6.27422 7.71839,6.05195 8.55264,5.95522 C10.6202,5.7155 12.6777,6.2584 14.6,7.69996 C15.9593,8.71937 16.6679,10.0714 16.5655,11.4693 C16.5231,12.0487 16.346,12.6003 16.0626,13.108 C16.1281,13.1226 16.1964,13.1362 16.2673,13.1486 C16.9182,13.2624 17.6298,13.2475 18.1658,13.0575 C18.4433,12.9591 18.9863,12.6732 19.3839,12.1926 C19.7481,11.7524 20.0092,11.1356 19.8018,10.2213 C18.9934,6.65879 15.806,4 12,4 Z" id="形状" fill="#09244B"></path>
            </g>
        </g>
    </g>
</svg>

<svg xmlns="http://www.w3.org/2000/svg" width="24" height="24"><g fill="none" fill-rule="evenodd"><path d="M24 0v24H0V0h24ZM12.594 23.258l-.012.002-.071.035-.02.004-.014-.004-.071-.036c-.01-.003-.019 0-.024.006l-.004.01-.017.428.005.02.01.013.104.074.015.004.012-.004.104-.074.012-.016.004-.017-.017-.427c-.002-.01-.009-.017-.016-.018Zm.264-.113-.014.002-.184.093-.01.01-.003.011.018.43.005.012.008.008.201.092c.012.004.023 0 .029-.008l.004-.014-.034-.614c-.003-.012-.01-.02-.02-.022Zm-.715.002a.023.023 0 0 0-.027.006l-.006.014-.034.614c0 .012.007.02.017.024l.015-.002.201-.093.01-.008.003-.011.018-.43-.003-.012-.01-.01-.184-.092Z"/><path fill="#09244B" d="M12 2c4.76 0 8.742 3.325 9.752 7.779.36 1.585-.113 2.825-.827 3.688a5.031 5.031 0 0 1-2.09 1.476c-.965.341-2.05.327-2.912.176a5.616 5.616 0 0 1-1.213-.346c-.308-.132-.73-.354-.99-.726a1 1 0 0 1 .109-1.277c.485-.49.709-.995.742-1.447.032-.44-.107-.936-.549-1.45-.703-.813-1.887-.97-2.723-.374-.804.577-1.188 1.457-1.104 2.454.085 1.016.67 2.216 1.945 3.279C13.317 16.212 15.353 17 17 17c.576 0 1.135-.07 1.669-.2a1 1 0 0 1 1.004 1.613A9.981 9.981 0 0 1 12 22c-.77 0-1.52-.087-2.242-.252C5.315 20.73 2 16.753 2 12c0-.994.145-1.956.417-2.864C3.648 5.01 7.47 2 12 2ZM8.316 12.862A7.241 7.241 0 0 0 8 15c0 1.827.938 3.548 2.435 4.847a8.044 8.044 0 0 0 5.558-.913c-1.871-.238-3.847-1.094-5.133-2.166-1.365-1.138-2.23-2.51-2.544-3.906ZM9.951 7.92c-.39-.031-.78-.022-1.168.023-1.475.17-3.007.873-4.532 2.06A8.016 8.016 0 0 0 4 12a7.98 7.98 0 0 0 2.574 5.88A7.577 7.577 0 0 1 6 15c0-3.298 1.717-5.976 3.553-6.894.132-.066.264-.129.398-.187ZM12 4a7.98 7.98 0 0 0-5.906 2.603 9.304 9.304 0 0 1 2.459-.648c2.067-.24 4.125.303 6.047 1.745 1.36 1.02 2.068 2.371 1.966 3.77a3.943 3.943 0 0 1-.503 1.638c.065.015.133.028.204.04.651.114 1.363.1 1.899-.09.277-.099.82-.385 1.218-.865.364-.44.625-1.057.418-1.972A8.004 8.004 0 0 0 12 4Z"/></g></svg>
